X:111
T:The Strife Is O'er, The Battle Done
%%stretchlast false
M:3/4
L:1/4
K:C clef=C1
"^i"[C,,C] "^I"[C,G,CE] [C,G,CE] | "^IV"[F,,A,CF]2 [F,,A,CF] | "^I"[C,G,CE] [C,E,CG] [C,E,CG] | "^IV"[F,,F,CA]2 [F,,F,CA] | "^I"[C,E,CG] "^iii"[E,G,EG] "^i"[C,G,Dc] | "^V"[G,,G,DB]2 "^iii¹"[G,,G,EB] | "^I"[C,G,Ec] [C,G,Ec] [C,E] | [C,CEG] [C,CFG] "^iv"[F,CFG] | "^IVmaj7"[F,CEA] "^vi¹"[C,CEA] "^vi7²"[E,A,CG] | "^V²"[D,A,B,G] "^ii²"[A,DF] "^I²"[G,CDE] | "^V"[G,B,DG] [G,B,CG] "^i7"[C,B,CG] | "^I"[C,G,CE] [C,G,CE] "^vi7"[A,,G,CE] | [A,,A,B,E] "^vi²"[E,A,CE] "^vi7¹"[C,G,A,E] | [D,G,A,E] "^viiø7³"[A,,F,B,D] "^Imaj7²"[G,,E,B,C] | "^V"[G,,G,B,D] [G,,G,DE] "^iii7"[E,G,DE] | "^Imaj7"[C,B,EG] [C,CFG] "^iv"[F,CFG] | "^IVmaj7"[F,CEA] "^vi¹"[C,CEA] "^vi7²"[E,A,CG] | "^V²"[D,A,B,G] "^ii²"[A,DF] "^I²"[G,CDE] | "^V"[G,B,DG] [G,B,CG] "^iii"[E,B,EG] | "^ii"[C,D] "^i"[G,,CDG] [G,,G,Dc] | "^iii¹"[G,,G,EB] "^Imaj7"[C,G,EB]2 | "^i"[C,G,Cc] [C,,G,Cc] [C,G,Cc] | [C,C] "^I"[F,,G,CE] [F,,G,CE] | "^IV"[F,,A,CF] "^IV²"[C,A,CF] [C,A,CF] | "^I"[C,G,CE] [F,,E,CG] [F,,E,CG] | "^IV"[F,,F,CA] "^IVmaj7²"[C,F,EA] "^ii"[E,F,DA] | "^I"[C,E,DG] "^v"[G,,G,DG] "^I²"[G,,G,Ec] | "^iii¹"[G,,G,EB] "^i7"[C,G,B]2 | "^i"[G,c]2 |]
